svg/Outline/lock.svg

<svg viewBox="0 0 24 24" xmlns="http://www.w3.org/2000/svg" width="24" height="24"><path d="M12 13a1.5 1.5 0 0 1 1.16 2.46l-.12.14-.02.08-.01.14v.68a1 1 0 0 1-2 0v-.81l-.04-.08-.11-.15q-.34-.4-.36-.96c0-.83.68-1.5 1.5-1.5"/><path fill-rule="evenodd" d="M12 1a5.1 5.1 0 0 1 5.1 5.1v2.84a4 4 0 0 1 3.6 3.98v4.47a4 4 0 0 1-3.8 3.8H7.1a4 4 0 0 1-3.8-3.8v-4.47a4 4 0 0 1 3.6-3.98V6.1A5.1 5.1 0 0 1 12 1m-4.7 9.72a2.2 2.2 0 0 0-2.2 2.2v4.27c0 1.22.98 2.2 2.2 2.2h9.4a2.2 2.2 0 0 0 2.2-2.2v-4.27a2.2 2.2 0 0 0-2.2-2.2zM12 2.8a3.3 3.3 0 0 0-3.3 3.3v2.82h6.6V6.1A3.3 3.3 0 0 0 12 2.8" clip-rule="evenodd"/></svg>

<svg viewBox="0 0 24 24" xmlns="http://www.w3.org/2000/svg" width="24" height="24"><path d="M12 13A1.5 1.5 0 0 1 13.16 15.46L13.04 15.6L13.01 15.82L13.01 16.5A1 1 0 0 1 11.01 16.5L11.01 15.69L10.86 15.46Q10.52 15.06 10.5 14.5C10.5 13.67 11.18 13 12 13"/><path fill-rule="evenodd" d="M12 1a5.1 5.1 0 0 1 5.1 5.1v2.84a4 4 0 0 1 3.6 3.98v4.47a4 4 0 0 1-3.8 3.8H7.1a4 4 0 0 1-3.8-3.8v-4.47a4 4 0 0 1 3.6-3.98V6.1A5.1 5.1 0 0 1 12 1m-4.7 9.72a2.2 2.2 0 0 0-2.2 2.2v4.27c0 1.22.98 2.2 2.2 2.2h9.4a2.2 2.2 0 0 0 2.2-2.2v-4.27a2.2 2.2 0 0 0-2.2-2.2zM12 2.8a3.3 3.3 0 0 0-3.3 3.3v2.82h6.6V6.1A3.3 3.3 0 0 0 12 2.8" clip-rule="evenodd"/></svg>
